!!!OTL: Ave Königin (4-3), S. 5
!!!id: P0564
**kern
*clefG2
*k[]
*G:
{4d
=1
4g
4g
4g
4a
=2
4g
4g
2d}
=3
{2b
4a
4b
=4
4cc
4b
4a}
=5
{4b
=6
4.dd
8dd
4dd
4ee
=7
4dd
4dd
4b
4g}
=8
{2ee
2dd
=9
4cc
4a
2g
=10
4a
4a
4b
4a
=11
2g}
4r
==
*-
!!!minrhy: 8
!!!meters: 4/4 ]  ZZ[4
!!!cut: Ave Königin (4-3), S. 5
!!!reg: Lothringen
!!!trd: PINCK, Louis: Verklingende Weisen Bd 4, Kassel 1939
!!!rhy1: X_  X_X_X_X_  X_X_X__   (x2)
!!!rhy2: X__X_X_  X_X_X_
!!!key: P0564  08  G 4/4 ]  ZZ[4
!!!mod: SECHSTONSKALA DUR ?]  AMBITUS[9
!!!kad: -5211
!!!akz: 111-5_3242_5553_6541231_
!!!fot: 'a__b__as"c__
!!!for: 'a__b__c__d__
!!!fok: '^__\__^d_\__
!! PHRAS[GEMISCHTTAKTIG]
!!!fkt: geistliches, religiöses Lied
!! LOTH VKL
!! PR[26] 2K[6] 2G[19] 3K[0] 3G[6] 4A[4] 4Ü[0] 5A[0] 6K[0] 6G[0]
!! 7K[0] 7G[0] 8A[0] MEHR[0] SI[33] ABS[54] SR[24] SP[9]
!! ST[22] 2k[6] 2g[31] 3k[2] 3g[0] 4d[2] 4ü[0] 5d[0] 6k[0] 6g[0]
!! 7k[0] 7g[0] 8d[0] mehr[0] si[41] dm[-8] sr[37] sp[4]
!! 1F[44] 2F[42] 3F[2] 4F[0] LF[0] 2P[12] 3P[0] 4P[0] TRI[0] DF[4] AB[59]
!! TF[0] U3K[0] U3[0] U4[0] U4Ü[0] U5[7] U6K[0] U6[9] U7K[0] U7[4]
!! N1[31] N2K[2] N2[18] N3K[0] N3[18] N4[7] N4Ü[0] N5[4] N6K[0] N6[0]
!!!n7k: 0] N7[0] O1[0] O2K[0] O2[0] O3K[0] O3[0] HÖ[0
